hero/solid/check-circle.svg

<svg width="24" height="24" viewBox="0 0 24 24" fill="none" xmlns="http://www.w3.org/2000/svg">
<path fill-rule="evenodd" clip-rule="evenodd" d="M2.25 12C2.25 6.61522 6.61522 2.25 12 2.25C17.3848 2.25 21.75 6.61522 21.75 12C21.75 17.3848 17.3848 21.75 12 21.75C6.61522 21.75 2.25 17.3848 2.25 12ZM15.6103 10.1859C15.8511 9.84887 15.773 9.38046 15.4359 9.1397C15.0989 8.89894 14.6305 8.97701 14.3897 9.31407L11.1543 13.8436L9.53033 12.2197C9.23744 11.9268 8.76256 11.9268 8.46967 12.2197C8.17678 12.5126 8.17678 12.9874 8.46967 13.2803L10.7197 15.5303C10.8756 15.6862 11.0921 15.7656 11.3119 15.7474C11.5316 15.7293 11.7322 15.6153 11.8603 15.4359L15.6103 10.1859Z" fill="#0F172A"/>
</svg>

<svg viewBox="0 0 24 24" xmlns="http://www.w3.org/2000/svg"><path fill-rule="evenodd" d="M2.25 12c0-5.385 4.36-9.75 9.75-9.75 5.38 0 9.75 4.36 9.75 9.75 0 5.38-4.37 9.75-9.75 9.75 -5.39 0-9.75-4.37-9.75-9.75Zm13.36-1.814h-.001c.24-.34.18-.81-.15-1.06 -.34-.25-.81-.19-1.06.14 -.01 0-.02.01-.03.02l-3.24 4.53 -1.63-1.63 -.001-.001c-.31-.29-.78-.27-1.06.03 -.27.28-.27.73-.001 1.02l2.25 2.25h0c.29.29.76.29 1.06-.01 .02-.03.05-.07.07-.1l3.75-5.25Z"/></svg>
